build/assets/images/proyectos/logos/fichas/logo-familiados.svg

<svg width="200" height="36" viewBox="0 0 200 36" fill="none" xmlns="http://www.w3.org/2000/svg">
<path d="M198.296 20.6021C197.16 19.5222 195.246 18.6735 192.555 18.056L191.25 17.7622C190.464 17.5934 189.932 17.4125 189.652 17.2144C189.523 17.1345 189.417 17.0231 189.343 16.8907C189.27 16.7584 189.231 16.6093 189.231 16.4579C189.231 16.0091 189.483 15.6799 189.988 15.4701C190.494 15.2596 191.209 15.1546 192.134 15.1552C192.634 15.1588 193.134 15.2001 193.628 15.2787C194.174 15.3639 194.713 15.4694 195.245 15.5952C195.779 15.7219 196.27 15.8622 196.718 16.0161C197.07 16.1268 197.408 16.2749 197.729 16.4578C198.104 16.1358 198.411 15.7428 198.633 15.3013C198.884 14.7838 199.007 14.2135 198.991 13.6386C199.004 13.0062 198.796 12.3891 198.402 11.8942C197.971 11.3738 197.423 10.9625 196.803 10.6937C196.044 10.3605 195.245 10.1273 194.426 9.99984C193.46 9.84184 192.482 9.76447 191.503 9.76855C190.233 9.75575 188.967 9.9113 187.737 10.2311C186.696 10.4971 185.707 10.9382 184.814 11.5356C184.009 12.0765 183.353 12.8103 182.905 13.6701C182.457 14.5298 182.231 15.4882 182.249 16.4576C182.249 18.3654 182.844 19.8303 184.036 20.8523C185.228 21.8784 187.044 22.6292 189.483 23.1045L190.744 23.3567C191.53 23.4976 192.091 23.6796 192.427 23.9029C192.585 23.9995 192.715 24.1361 192.804 24.2988C192.892 24.4615 192.937 24.6447 192.932 24.8298C192.932 25.2507 192.702 25.5863 192.238 25.8385C191.775 26.0924 191.109 26.2159 190.24 26.2159C188.866 26.2159 187.653 26.0408 186.601 25.6907C185.634 25.3769 184.698 24.9758 183.803 24.4924C183.4 24.814 183.058 25.2058 182.794 25.6489C182.514 26.1115 182.374 26.6797 182.374 27.3533C182.358 28.0353 182.573 28.7026 182.984 29.2471C183.433 29.8143 184.009 30.2679 184.666 30.5713C185.381 30.9225 186.244 31.1822 187.254 31.3504C188.339 31.5246 189.437 31.6089 190.536 31.6025C193.649 31.6025 196.004 30.9989 197.602 29.7917C199.202 28.5882 200.001 26.9197 200 24.7864C200 23.0769 199.432 21.6821 198.296 20.6021Z" fill="white"/>
<path d="M176.437 12.776C175.44 11.8195 174.26 11.0757 172.967 10.5898C171.621 10.0696 170.121 9.80987 168.466 9.81067C166.811 9.81147 165.311 10.0636 163.965 10.5672C162.67 11.0402 161.487 11.779 160.494 12.736C159.506 13.7038 158.739 14.873 158.243 16.1638C157.709 17.5099 157.443 19.0102 157.443 20.6648C157.443 22.3466 157.71 23.8608 158.243 25.2074C158.738 26.4985 159.506 27.6677 160.494 28.6353C161.487 29.5923 162.67 30.331 163.965 30.804C165.31 31.3084 166.81 31.5605 168.466 31.5605C170.12 31.5605 171.62 31.3216 172.967 30.8439C174.261 30.3996 175.444 29.6825 176.437 28.7412C177.429 27.7774 178.198 26.6072 178.689 25.3134C179.221 23.9518 179.487 22.4022 179.487 20.6647C179.487 19.0385 179.221 17.5521 178.689 16.2055C178.191 14.9147 177.423 13.7454 176.437 12.776V12.776ZM171.221 24.576C170.59 25.5012 169.685 25.9644 168.506 25.9656C167.33 25.9656 166.41 25.51 165.753 24.5986C165.092 23.6855 164.762 22.3742 164.764 20.6647C164.764 18.9812 165.086 17.6838 165.73 16.7725C166.376 15.8629 167.288 15.4072 168.466 15.4054C169.643 15.4054 170.555 15.8611 171.2 16.7725C171.843 17.6855 172.166 18.9829 172.167 20.6647C172.167 22.3466 171.852 23.6504 171.221 24.576Z" fill="white"/>
<path d="M154.036 31.2249V17.4769C154.035 17.1166 154.014 16.7566 153.973 16.3986V6.44545C153.973 5.74457 153.89 5.17594 153.723 4.74277C153.574 4.33398 153.311 3.97627 152.965 3.71145C152.598 3.44693 152.173 3.27347 151.725 3.20534C151.175 3.11734 150.618 3.07548 150.061 3.08019C149.427 3.07913 148.794 3.12858 148.169 3.22805C147.715 3.29139 147.265 3.38256 146.823 3.50106V10.0215C145.875 9.8642 144.916 9.78334 143.955 9.7797V9.80061H143.941C143.177 9.79873 142.414 9.85629 141.659 9.97278C140.949 10.0771 140.248 10.2411 139.565 10.463C138.273 10.8746 137.084 11.5557 136.075 12.4613C135.051 13.3992 134.253 14.5568 133.741 15.8474C133.179 17.209 132.899 18.8148 132.899 20.6648C132.899 22.3466 133.158 23.8539 133.677 25.1866C134.172 26.4835 134.948 27.6546 135.95 28.6163C136.944 29.5694 138.164 30.2986 139.609 30.8041C141.054 31.3085 142.688 31.5607 144.51 31.5606C145.183 31.5602 145.856 31.5213 146.525 31.4441H146.529C146.732 31.4197 146.934 31.3954 147.131 31.364H147.138L147.171 31.357C147.466 31.31 147.758 31.2614 148.038 31.197C148.381 31.1222 148.715 31.0387 149.031 30.9379C149.37 30.8318 149.689 30.7205 149.995 30.6056C149.994 30.6056 152.087 31.423 154.036 31.2249ZM146.866 25.1657C146.583 25.3949 146.262 25.5727 145.918 25.6909C145.719 25.7656 145.513 25.8215 145.304 25.8579C145.076 25.8939 144.846 25.9119 144.615 25.9117C143.246 25.9117 142.196 25.4961 141.445 24.6891C141.41 24.6525 141.366 24.6265 141.333 24.5865C140.575 23.703 140.197 22.3917 140.198 20.6525C140.187 19.9084 140.282 19.1666 140.479 18.449C140.681 17.7446 140.989 17.1568 141.417 16.6994C142.019 16.0559 142.813 15.6507 143.799 15.4837C144.145 15.4311 144.495 15.4049 144.845 15.4055C145.631 15.4055 146.302 15.5741 146.866 15.9099L146.866 25.1657Z" fill="white"/>
<path d="M125.408 30.5987C125.408 30.5987 127.5 31.4162 129.452 31.2179V17.4716C129.452 16.1533 129.213 15.0108 128.737 14.0438C128.268 13.0857 127.566 12.2609 126.695 11.6456C125.813 11.0142 124.748 10.5441 123.499 10.235C123.119 10.1411 122.704 10.0889 122.3 10.0249C121.331 9.86211 120.351 9.77776 119.368 9.77271V9.79531L119.354 9.79361C117.892 9.78219 116.436 10.0023 115.043 10.4458C113.751 10.8585 112.561 11.5394 111.55 12.4441C111.458 12.5293 111.376 12.625 111.288 12.7119C110.393 13.6003 109.689 14.662 109.218 15.832C108.654 17.192 108.374 18.7972 108.376 20.6477C108.376 22.3312 108.636 23.8385 109.154 25.1695C109.524 26.1345 110.049 27.0326 110.709 27.8287C110.933 28.0987 111.172 28.3559 111.425 28.599C112.42 29.5521 113.64 30.2814 115.086 30.7869C116.11 31.1328 117.171 31.3559 118.247 31.4513C118.635 31.4774 119.025 31.5035 119.43 31.5138C119.618 31.5208 119.793 31.5451 119.985 31.5451C120.843 31.5471 121.701 31.4849 122.55 31.359C123.192 31.2657 123.826 31.1233 124.446 30.933C124.783 30.8269 125.101 30.7156 125.408 30.6007L125.408 30.5987ZM122.342 25.1482C122.06 25.3781 121.74 25.5559 121.396 25.6734C120.958 25.8338 120.495 25.9128 120.029 25.9064C118.66 25.9064 117.61 25.4891 116.859 24.6838C116.824 24.6456 116.78 24.6213 116.747 24.5812C115.989 23.6977 115.61 22.3864 115.611 20.6472C115.602 19.9031 115.697 19.1614 115.893 18.4437C116.095 17.7393 116.403 17.1498 116.83 16.6941C117.645 15.8246 118.809 15.3898 120.323 15.3898C120.502 15.3898 120.682 15.3999 120.86 15.4198C121.383 15.4685 121.888 15.6305 122.342 15.8946L122.342 25.1482Z" fill="white"/>
<path d="M101.339 0.97583C100.161 0.97583 99.2149 1.34104 98.5001 2.07147C97.7836 2.8001 97.426 3.69693 97.4272 4.76196C97.4272 5.82806 97.7849 6.72602 98.5001 7.45585C99.2149 8.18454 100.161 8.54862 101.339 8.54809C102.516 8.54756 103.463 8.18347 104.179 7.45585C104.893 6.72542 105.25 5.82746 105.25 4.76196C105.25 3.6976 104.893 2.80077 104.179 2.07147C103.462 1.34071 102.515 0.975497 101.339 0.97583Z" fill="white"/>
<path d="M103.864 10.9881C103.495 10.7235 103.069 10.5506 102.62 10.4837C102.071 10.395 101.516 10.3525 100.959 10.3567C100.347 10.3569 99.7346 10.4071 99.1299 10.5068C98.5263 10.6042 98.0706 10.6825 97.7629 10.7382V27.8578C97.7629 28.5604 97.853 29.1273 98.0359 29.5621C98.198 29.9697 98.4672 30.3261 98.815 30.5935C99.1826 30.8573 99.6076 31.0301 100.055 31.0978C100.605 31.1859 101.161 31.2277 101.718 31.223C102.33 31.2234 102.942 31.174 103.547 31.0752C104.149 30.9778 104.606 30.8995 104.914 30.8438V13.7237C104.914 13.0229 104.822 12.4548 104.639 12.0194C104.478 11.6123 104.21 11.2561 103.864 10.9881V10.9881Z" fill="white"/>
<path d="M92.4792 3.71144C92.1118 3.44698 91.6868 3.27352 91.2392 3.20533C90.6894 3.11741 90.1332 3.07554 89.5765 3.08018C88.9637 3.07959 88.3518 3.12904 87.747 3.22804C87.1435 3.32548 86.6877 3.40371 86.3799 3.45944V27.8578C86.3799 28.5604 86.4699 29.1273 86.653 29.5621C86.8145 29.9697 87.0831 30.326 87.4304 30.5935C87.7986 30.8574 88.2242 31.0302 88.6721 31.0979C89.2212 31.1858 89.7767 31.2277 90.3328 31.2231C90.9462 31.2237 91.5586 31.1742 92.164 31.0752C92.7658 30.9778 93.2215 30.8995 93.5312 30.8439V6.44544C93.5312 5.74456 93.4389 5.17593 93.2581 4.74275C93.0959 4.33524 92.8268 3.97897 92.4792 3.71144V3.71144Z" fill="white"/>
<path d="M78.5988 0.97583C77.4215 0.97583 76.4749 1.34104 75.7588 2.07147C75.0423 2.8001 74.6847 3.69693 74.6858 4.76196C74.6858 5.82806 75.0435 6.72602 75.7588 7.45585C76.4737 8.18454 77.4203 8.54862 78.5988 8.54809C79.7773 8.54756 80.724 8.18347 81.4389 7.45585C82.1537 6.72542 82.5109 5.82746 82.5103 4.76196C82.5103 3.6976 82.1531 2.80077 81.4389 2.07147C80.7224 1.34071 79.7757 0.975497 78.5988 0.97583Z" fill="white"/>
<path d="M81.1227 10.9881C80.7549 10.7233 80.3292 10.5503 79.8809 10.4837C79.3319 10.3951 78.7764 10.3526 78.2203 10.3567C77.6073 10.3568 76.9954 10.407 76.3906 10.5068C75.7856 10.6042 75.3315 10.6825 75.0237 10.7382V27.8578C75.0237 28.5604 75.1137 29.1273 75.2969 29.5621C75.459 29.9698 75.7282 30.3262 76.0761 30.5935C76.4435 30.8577 76.8686 31.0305 77.3161 31.0978C77.8652 31.1858 78.4207 31.2277 78.9768 31.223C79.5902 31.2235 80.2026 31.1741 80.808 31.0752C81.4098 30.9778 81.8654 30.8995 82.175 30.8438V13.7237C82.175 13.0229 82.0834 12.4548 81.9004 12.0194C81.7381 11.6122 81.4695 11.2561 81.1227 10.9881Z" fill="white"/>
<path d="M68.1886 11.5568C67.3699 10.9442 66.4412 10.4943 65.4529 10.2316C64.4324 9.95156 63.3789 9.81 62.3206 9.81074C60.8318 9.81074 59.5623 9.99278 58.5119 10.3569C57.5108 10.698 56.5571 11.1649 55.6738 11.7464C54.8166 11.08 53.8377 10.5873 52.7918 10.2958C51.692 9.9736 50.5518 9.81018 49.4057 9.81054C47.9035 9.80472 46.4084 10.0174 44.9674 10.4419C43.55 10.8627 42.365 11.41 41.4126 12.0837C40.9029 12.4261 40.4548 12.8522 40.0873 13.3442C39.7639 13.7929 39.6028 14.3965 39.6038 15.1549V27.8579C39.6038 28.5605 39.6938 29.1274 39.8786 29.5622C40.0389 29.97 40.307 30.3265 40.6543 30.5936C41.0227 30.8571 41.4482 31.0299 41.896 31.0979C42.4458 31.1859 43.002 31.2278 43.5588 31.2231C44.1847 31.2243 44.8099 31.1825 45.4301 31.0979C45.8772 31.0441 46.32 30.9592 46.7553 30.8439V16.0804C47.0556 15.9162 47.3644 15.7682 47.6805 15.6369C48.0956 15.4739 48.539 15.3953 48.9849 15.4056C49.7136 15.4056 50.3374 15.5952 50.8562 15.9743C51.3764 16.3518 51.6361 16.9616 51.6353 17.804V27.858C51.6353 28.5606 51.7254 29.1275 51.9084 29.5623C52.0706 29.97 52.3398 30.3264 52.6877 30.5937C53.0553 30.8576 53.4802 31.0304 53.9277 31.098C54.4768 31.186 55.0322 31.2278 55.5883 31.2232C56.201 31.2235 56.8129 31.1817 57.4198 31.098C57.88 31.0405 58.3365 30.9557 58.7867 30.844V16.5622C58.7856 16.4558 58.771 16.3501 58.7431 16.2474C59.0481 16.0057 59.3899 15.8143 59.7553 15.6804C60.1536 15.5078 60.5818 15.4144 61.0158 15.4056C61.828 15.4056 62.4726 15.5952 62.9496 15.9743C63.4263 16.3518 63.6645 16.9616 63.6644 17.804V27.858C63.6644 28.5606 63.7566 29.1275 63.9394 29.5623C64.1014 29.9695 64.3698 30.3258 64.7166 30.5937C65.0851 30.8573 65.5106 31.0301 65.9585 31.098C66.5083 31.1861 67.0644 31.228 67.6212 31.2232C68.2471 31.2244 68.8724 31.1826 69.4925 31.098C69.9391 31.0446 70.3813 30.9597 70.816 30.844V17.5935C70.816 16.1639 70.5777 14.9512 70.1012 13.9552C69.6679 13.0123 69.0114 12.1892 68.1886 11.5568V11.5568Z" fill="white"/>
<path d="M31.6349 30.6057C31.6349 30.6057 33.7287 31.4231 35.6784 31.2248V17.4786C35.6784 16.1604 35.4401 15.0178 34.9636 14.0508C34.4958 13.0928 33.7942 12.268 32.9236 11.6525C32.04 11.0212 30.9745 10.551 29.7272 10.242C29.3479 10.148 28.9323 10.0958 28.5267 10.0319C27.5576 9.86893 26.577 9.78459 25.5944 9.77966V9.80227L25.5823 9.80057C24.1196 9.78914 22.6644 10.0093 21.2705 10.4527C19.9785 10.865 18.7883 11.546 17.7782 12.451C17.686 12.5363 17.6043 12.6319 17.5156 12.7189C16.6201 13.6072 15.9153 14.6688 15.4442 15.8389C14.8825 17.1989 14.6019 18.8041 14.6025 20.6546C14.6025 22.338 14.8617 23.8453 15.38 25.1764C15.7509 26.1414 16.2767 27.0395 16.9365 27.8355C17.1602 28.1059 17.3994 28.3631 17.6529 28.6058C18.6478 29.5588 19.8675 30.2881 21.3121 30.7936C22.3365 31.1397 23.3985 31.3627 24.4756 31.4579C24.8635 31.484 25.253 31.5101 25.6581 31.5205C25.8443 31.5275 26.0199 31.5519 26.213 31.5519C27.0709 31.5539 27.9278 31.4917 28.7764 31.3658C29.4183 31.2727 30.0521 31.1302 30.6721 30.9397C31.0094 30.8336 31.33 30.7229 31.6339 30.6075L31.6349 30.6057ZM28.5704 25.1552C28.2885 25.3847 27.9682 25.5625 27.6243 25.6804C27.1861 25.8408 26.7222 25.9198 26.2555 25.9135C24.8886 25.9135 23.8381 25.4961 23.087 24.6909C23.0521 24.6526 23.0085 24.6266 22.9756 24.5882C22.2172 23.7048 21.8387 22.3934 21.8399 20.6543C21.8298 19.9103 21.9241 19.1686 22.12 18.4508C22.3234 17.7464 22.6312 17.1568 23.059 16.7012C23.8713 15.8316 25.0355 15.3968 26.5513 15.3968C26.7308 15.397 26.9102 15.407 27.0887 15.4268C27.6111 15.4761 28.1167 15.6381 28.5705 15.9016L28.5704 25.1552Z" fill="white"/>
<path d="M13.3867 1.81779C12.6806 1.37081 11.4134 0.908721 9.33887 0.908721C8.11054 0.901002 6.88664 1.05656 5.6993 1.37131C4.62366 1.65111 3.6153 2.14442 2.7342 2.82189C1.88201 3.49718 1.1979 4.36078 0.735594 5.34491C0.245396 6.37093 0 8.0296 0 9.45908V35.1295C0 35.1295 1.35955 35.1314 2.34185 35.1295C3.32414 35.1276 5.14477 34.6472 6.09336 33.6451C7.04194 32.6429 7.14939 31.5008 7.15119 30.4649C7.15299 29.4289 7.15119 17.7375 7.15119 17.7375C7.15119 17.7375 8.98613 17.7454 9.68101 17.7375C10.3616 17.719 11.0108 17.4474 11.5017 16.9757C11.9112 16.5555 12.3702 15.9087 12.4285 15.0249C12.4868 14.1412 12.4071 13.7635 12.3319 13.2325C12.2602 12.8175 12.1582 12.4084 12.0269 12.0083H6.77204V9.71118C6.77204 8.70257 7.10884 7.99422 7.78244 7.58612C8.45538 7.18096 9.39499 6.97807 10.6013 6.97747C11.3577 6.97747 12.1103 7.11273 12.6858 7.21177C13.2598 7.31091 14.2602 7.56831 14.2602 7.56831C14.453 7.1497 14.6103 6.71559 14.7304 6.27059C14.8874 5.63733 15.0618 4.62663 14.8604 3.72216C14.659 2.81769 14.0928 2.26477 13.3867 1.81779Z" fill="white"/>
</svg>

<svg width="200" height="36" fill="none" xmlns="http://www.w3.org/2000/svg"><path d="M198.296 20.602c-1.136-1.08-3.05-1.928-5.741-2.546l-1.305-.294c-.786-.169-1.318-.35-1.598-.548a.892.892 0 01-.421-.756c0-.449.252-.778.757-.988.506-.21 1.221-.315 2.146-.315.5.004 1 .045 1.494.124.546.085 1.085.19 1.617.316.534.127 1.025.267 1.473.421.352.11.69.259 1.011.442.375-.322.682-.715.904-1.157a3.582 3.582 0 00.358-1.662 2.71 2.71 0 00-.589-1.745 4.294 4.294 0 00-1.599-1.2 9.577 9.577 0 00-2.377-.694 17.655 17.655 0 00-2.923-.231 14.388 14.388 0 00-3.766.462 9.478 9.478 0 00-2.923 1.305 5.8 5.8 0 00-2.565 4.922c0 1.907.595 3.372 1.787 4.394 1.192 1.026 3.008 1.777 5.447 2.253l1.261.252c.786.14 1.347.323 1.683.546a1.06 1.06 0 01.505.927c0 .42-.23.756-.694 1.009-.463.253-1.129.377-1.998.377-1.374 0-2.587-.175-3.639-.525a16.796 16.796 0 01-2.798-1.199 4.288 4.288 0 00-1.009 1.157c-.28.462-.42 1.03-.42 1.704-.016.682.199 1.35.61 1.894a4.61 4.61 0 001.682 1.324c.715.351 1.578.611 2.588.78 1.085.174 2.183.258 3.282.252 3.113 0 5.468-.604 7.066-1.811 1.6-1.204 2.399-2.872 2.398-5.006 0-1.71-.568-3.104-1.704-4.184zm-21.859-7.826a10.19 10.19 0 00-3.47-2.186c-1.346-.52-2.846-.78-4.501-.78-1.655.001-3.155.254-4.501.757a9.895 9.895 0 00-3.471 2.169 9.635 9.635 0 00-2.251 3.428c-.534 1.346-.8 2.846-.8 4.5 0 1.683.267 3.197.8 4.543a9.617 9.617 0 002.251 3.428 9.895 9.895 0 003.471 2.169c1.345.504 2.845.757 4.501.757 1.654 0 3.154-.24 4.501-.717a9.553 9.553 0 003.47-2.103 9.459 9.459 0 002.252-3.428c.532-1.361.798-2.91.798-4.648 0-1.627-.266-3.113-.798-4.46a9.712 9.712 0 00-2.252-3.429zm-5.216 11.8c-.631.925-1.536 1.388-2.715 1.39-1.176 0-2.096-.456-2.753-1.367-.661-.913-.991-2.225-.989-3.934 0-1.684.322-2.981.966-3.892.646-.91 1.558-1.366 2.736-1.368 1.177 0 2.089.456 2.734 1.368.643.913.966 2.21.967 3.892 0 1.682-.315 2.985-.946 3.911zm-17.185 6.649V17.477a9.714 9.714 0 00-.063-1.078V6.445c0-.7-.083-1.27-.25-1.702a2.284 2.284 0 00-.758-1.032 2.854 2.854 0 00-1.24-.506 10 10 0 00-1.664-.125 11.914 11.914 0 00-1.892.148 11.15 11.15 0 00-1.346.273v6.52a17.935 17.935 0 00-2.868-.241v.02h-.014a14.728 14.728 0 00-2.282.173c-.71.104-1.411.268-2.094.49a9.576 9.576 0 00-3.49 1.998 9.184 9.184 0 00-2.334 3.386c-.562 1.362-.842 2.968-.842 4.818 0 1.682.259 3.189.778 4.522a9.399 9.399 0 002.273 3.43c.994.952 2.214 1.682 3.659 2.187 1.445.505 3.079.757 4.901.757.673 0 1.346-.04 2.015-.117h.004c.203-.024.405-.049.602-.08h.007l.033-.007a13.066 13.066 0 002.824-.751c-.001 0 2.092.817 4.041.619zm-7.17-6.06c-.283.23-.604.408-.948.526-.199.075-.405.13-.614.167a4.39 4.39 0 01-.689.054c-1.369 0-2.419-.416-3.17-1.223-.035-.037-.079-.063-.112-.102-.758-.884-1.136-2.195-1.135-3.934a7.884 7.884 0 01.281-2.204c.202-.704.51-1.292.938-1.75.602-.643 1.396-1.048 2.382-1.215a6.884 6.884 0 011.046-.079c.786 0 1.457.17 2.021.505v9.256zm-21.458 5.434s2.092.817 4.044.619V17.472c0-1.319-.239-2.461-.715-3.428a6.359 6.359 0 00-2.042-2.398c-.882-.632-1.947-1.102-3.196-1.411-.38-.094-.795-.146-1.199-.21a18.259 18.259 0 00-2.932-.252v.022l-.014-.001a13.858 13.858 0 00-4.311.652 9.634 9.634 0 00-3.493 1.998c-.092.085-.174.181-.262.268a9.277 9.277 0 00-2.07 3.12c-.564 1.36-.844 2.965-.842 4.816 0 1.683.26 3.19.778 4.521a9.488 9.488 0 002.271 3.43c.995.953 2.215 1.682 3.661 2.188 1.024.346 2.085.569 3.161.664.388.026.778.052 1.183.063.188.007.363.031.555.031.858.002 1.716-.06 2.565-.186a12.674 12.674 0 001.896-.426c.337-.106.655-.217.962-.332v-.002zm-3.066-5.45c-.282.23-.602.407-.946.524-.438.16-.901.24-1.367.233-1.369 0-2.419-.417-3.17-1.222-.035-.038-.079-.063-.112-.103-.758-.883-1.137-2.195-1.136-3.934a7.997 7.997 0 01.282-2.203c.202-.705.51-1.294.937-1.75.815-.87 1.979-1.304 3.493-1.304.179 0 .359.01.537.03.523.049 1.028.21 1.482.475v9.253zM101.339.976c-1.178 0-2.124.365-2.839 1.095-.716.73-1.074 1.626-1.073 2.691 0 1.066.358 1.964 1.073 2.694.715.729 1.661 1.093 2.839 1.092 1.177 0 2.124-.365 2.84-1.092.714-.73 1.071-1.629 1.071-2.694 0-1.064-.357-1.961-1.071-2.69-.717-.731-1.664-1.097-2.84-1.096zm2.525 10.012a2.856 2.856 0 00-1.244-.504 9.938 9.938 0 00-1.661-.127c-.612 0-1.224.05-1.83.15a71.12 71.12 0 00-1.366.231v17.12c0 .702.09 1.27.273 1.704.162.408.431.764.779 1.031.368.264.793.437 1.24.505a9.98 9.98 0 001.663.125c.612 0 1.224-.049 1.829-.148a78.482 78.482 0 001.367-.231v-17.12c0-.701-.092-1.27-.275-1.705a2.44 2.44 0 00-.775-1.03zM92.48 3.711a2.86 2.86 0 00-1.24-.506 9.966 9.966 0 00-1.663-.125c-.613 0-1.225.049-1.83.148a75.89 75.89 0 00-1.367.231v24.399c0 .702.09 1.27.273 1.704.161.408.43.764.777 1.031.369.264.794.437 1.242.505.55.088 1.105.13 1.66.125.614 0 1.227-.049 1.832-.148a83.169 83.169 0 001.367-.231V6.445c0-.7-.092-1.27-.273-1.702a2.44 2.44 0 00-.779-1.032zM78.599.976c-1.178 0-2.124.365-2.84 1.095-.717.73-1.074 1.626-1.073 2.691 0 1.066.357 1.964 1.073 2.694.715.729 1.661 1.093 2.84 1.092 1.178 0 2.125-.365 2.84-1.092.715-.73 1.072-1.629 1.071-2.694 0-1.064-.357-1.961-1.071-2.69-.717-.731-1.663-1.097-2.84-1.096zm2.524 10.012a2.84 2.84 0 00-1.242-.504 9.962 9.962 0 00-1.66-.127c-.614 0-1.226.05-1.83.15a73.46 73.46 0 00-1.367.231v17.12c0 .702.09 1.27.273 1.704.162.408.431.764.78 1.031a2.85 2.85 0 001.24.505c.548.088 1.104.13 1.66.125a11.3 11.3 0 001.831-.148 81.588 81.588 0 001.367-.231v-17.12c0-.701-.092-1.27-.275-1.705a2.45 2.45 0 00-.777-1.03zm-12.934.569a7.994 7.994 0 00-2.736-1.325 11.805 11.805 0 00-3.132-.421c-1.49 0-2.759.182-3.81.546a12.483 12.483 0 00-2.837 1.39 8.346 8.346 0 00-2.882-1.451 12.03 12.03 0 00-3.386-.485 15.494 15.494 0 00-4.439.63c-1.417.422-2.602.969-3.554 1.643-.51.342-.958.768-1.326 1.26-.323.449-.484 1.053-.483 1.81v12.704c0 .703.09 1.27.275 1.704.16.408.428.764.775 1.032.369.263.794.436 1.242.504.55.088 1.106.13 1.663.125.626.001 1.25-.04 1.871-.125a9.77 9.77 0 001.325-.254V16.08c.3-.164.61-.312.925-.443a3.356 3.356 0 011.305-.231c.729 0 1.352.19 1.871.568.52.378.78.988.78 1.83v10.054c0 .703.09 1.27.272 1.704.163.408.432.764.78 1.032.367.264.792.436 1.24.504.549.088 1.104.13 1.66.125.613 0 1.225-.041 1.832-.125a11.7 11.7 0 001.367-.254V16.562a1.25 1.25 0 00-.044-.315 3.654 3.654 0 011.012-.567 3.34 3.34 0 011.26-.274c.813 0 1.458.19 1.935.568.476.378.714.988.714 1.83v10.054c0 .703.093 1.27.275 1.704.162.407.43.764.778 1.032a2.88 2.88 0 001.242.504c.55.088 1.105.13 1.662.125a13.65 13.65 0 001.872-.125 9.557 9.557 0 001.323-.254v-13.25c0-1.43-.238-2.643-.715-3.639a6.39 6.39 0 00-1.912-2.398zM31.635 30.606s2.094.817 4.043.619V17.479c0-1.319-.238-2.461-.714-3.428a6.349 6.349 0 00-2.04-2.399c-.884-.63-1.95-1.101-3.197-1.41-.38-.094-.795-.146-1.2-.21-.97-.163-1.95-.247-2.933-.252v.022l-.012-.001a13.866 13.866 0 00-4.312.652 9.613 9.613 0 00-3.492 1.998c-.092.085-.174.18-.262.268a9.272 9.272 0 00-2.072 3.12c-.562 1.36-.842 2.965-.842 4.816 0 1.683.26 3.19.778 4.521a9.517 9.517 0 002.273 3.43c.995.953 2.215 1.682 3.66 2.188a13.61 13.61 0 003.163.664c.387.026.777.052 1.182.063.186.006.362.03.555.03.858.003 1.715-.06 2.563-.185a12.624 12.624 0 001.896-.426c.337-.106.658-.217.962-.332v-.002zm-3.065-5.45a3.07 3.07 0 01-.946.524c-.438.16-.902.24-1.368.233-1.367 0-2.418-.417-3.169-1.222-.035-.038-.078-.064-.111-.103-.759-.883-1.137-2.195-1.136-3.934a7.959 7.959 0 01.28-2.203c.203-.705.511-1.294.939-1.75.812-.87 1.976-1.304 3.492-1.304.18 0 .36.01.538.03a3.63 3.63 0 011.482.475v9.253zM13.387 1.818c-.706-.447-1.974-.91-4.048-.91a13.864 13.864 0 00-3.64.463 8.287 8.287 0 00-2.965 1.45A7.036 7.036 0 00.736 5.346C.246 6.37 0 8.03 0 9.459v25.67s1.36.002 2.342 0c.982-.001 2.803-.482 3.751-1.484.949-1.002 1.056-2.144 1.058-3.18.002-1.036 0-12.727 0-12.727s1.835.007 2.53 0c.68-.019 1.33-.29 1.82-.762.41-.42.87-1.067.928-1.951.058-.884-.022-1.261-.097-1.793a8.648 8.648 0 00-.305-1.224H6.772V9.711c0-1.008.337-1.717 1.01-2.125.673-.405 1.613-.608 2.82-.609.756 0 1.508.136 2.084.235a26.77 26.77 0 011.574.356c.193-.418.35-.852.47-1.297.157-.634.332-1.644.13-2.549-.201-.904-.767-1.457-1.473-1.904z" fill="#fff"/></svg>
